austria/municipalities/70334.svg

<?xml version="1.0" encoding="UTF-8"?>
<!DOCTYPE svg PUBLIC "-//W3C//DTD SVG 1.1//EN" "http://www.w3.org/Graphics/SVG/1.1/DTD/svg11.dtd">
<svg xmlns="http://www.w3.org/2000/svg" version="1.1" width="166px" height="192px" style="shape-rendering:geometricPrecision; text-rendering:geometricPrecision; image-rendering:optimizeQuality; fill-rule:evenodd; clip-rule:evenodd" xmlns:xlink="http://www.w3.org/1999/xlink">
<g><path style="opacity:1" fill="#0e0908" d="M -0.5,-0.5 C 54.8333,-0.5 110.167,-0.5 165.5,-0.5C 165.5,39.1667 165.5,78.8333 165.5,118.5C 157.367,159.633 132.7,183.966 91.5,191.5C 84.8333,191.5 78.1667,191.5 71.5,191.5C 30.4674,182.802 6.46741,157.802 -0.5,116.5C -0.5,77.5 -0.5,38.5 -0.5,-0.5 Z"/></g>
<g><path style="opacity:1" fill="#d73023" d="M 75.5,35.5 C 75.5,41.1667 75.5,46.8333 75.5,52.5C 72.9407,52.1984 70.6074,52.5318 68.5,53.5C 60.7627,53.9126 53.7627,56.4126 47.5,61C 32.8371,61.4999 18.1705,61.6666 3.5,61.5C 3.5,42.1667 3.5,22.8333 3.5,3.5C 56.1667,3.5 108.833,3.5 161.5,3.5C 161.5,22.8333 161.5,42.1667 161.5,61.5C 146.83,61.6666 132.163,61.4999 117.5,61C 109.038,55.3833 99.7051,52.55 89.5,52.5C 89.3339,46.8236 89.5006,41.1569 90,35.5C 92.3333,34.5 94,32.8333 95,30.5C 97.0329,20.363 92.8662,15.0296 82.5,14.5C 72.1338,15.0296 67.9671,20.363 70,30.5C 71.3792,32.7147 73.2125,34.3813 75.5,35.5 Z"/></g>
<g><path style="opacity:1" fill="#d23023" d="M 83.5,28.5 C 82.8333,28.5 82.1667,28.5 81.5,28.5C 79.1667,28.5 76.8333,28.5 74.5,28.5C 76.0762,21.045 80.4096,18.8783 87.5,22C 89.4506,23.7342 90.4506,25.9009 90.5,28.5C 88.1667,28.5 85.8333,28.5 83.5,28.5 Z"/></g>
<g><path style="opacity:1" fill="#fefffe" d="M 81.5,28.5 C 82.1667,28.5 82.8333,28.5 83.5,28.5C 82.8333,111.167 82.1667,111.167 81.5,28.5 Z"/></g>
<g><path style="opacity:1" fill="#411912" d="M 75.5,35.5 C 76.4896,41.31 76.8229,47.31 76.5,53.5C 73.8333,53.5 71.1667,53.5 68.5,53.5C 70.6074,52.5318 72.9407,52.1984 75.5,52.5C 75.5,46.8333 75.5,41.1667 75.5,35.5 Z"/></g>
<g><path style="opacity:1" fill="#fdfdfd" d="M 3.5,62.5 C 17.1707,62.3334 30.8374,62.5001 44.5,63C 39.6994,66.799 35.1994,70.9657 31,75.5C 27.0265,83.3069 21.1931,89.3069 13.5,93.5C 11.1,88.3971 8.43335,88.2304 5.5,93C 6.79512,95.9641 9.12845,97.1307 12.5,96.5C 16.9861,96.5602 20.9861,95.2269 24.5,92.5C 27,96.8333 29.5,101.167 32,105.5C 33.3333,104.167 34.6667,102.833 36,101.5C 42.8333,107.667 49.6667,113.833 56.5,120C 39.1699,120.5 21.8365,120.667 4.5,120.5C 3.56335,101.19 3.23001,81.8563 3.5,62.5 Z"/></g>
<g><path style="opacity:1" fill="#fdfcfc" d="M 120.5,63.5 C 133.99,62.5043 147.656,62.171 161.5,62.5C 161.667,81.1696 161.5,99.8363 161,118.5C 152.398,119.818 143.564,120.485 134.5,120.5C 125.833,120.333 117.167,120.167 108.5,120C 115.167,114 121.833,108 128.5,102C 130.417,102.027 132.084,102.861 133.5,104.5C 135.802,100.367 138.302,96.367 141,92.5C 145.97,96.611 151.47,97.7777 157.5,96C 160.409,93.1606 160.075,90.9939 156.5,89.5C 154.259,90.0708 152.592,91.4042 151.5,93.5C 144.472,89.9719 139.305,84.6386 136,77.5C 131.241,72.2341 126.075,67.5675 120.5,63.5 Z"/></g>
<g><path style="opacity:1" fill="#fdfdfd" d="M 67.5,63.5 C 70.1667,63.5 72.8333,63.5 75.5,63.5C 75.5,72.5 75.5,81.5 75.5,90.5C 59.4965,90.6666 43.4965,90.4999 27.5,90C 37.29,75.6918 50.6233,66.8585 67.5,63.5 Z"/></g>
<g><path style="opacity:1" fill="#fdfdfd" d="M 89.5,63.5 C 110.334,63.7468 126.334,72.5802 137.5,90C 121.503,90.4999 105.503,90.6666 89.5,90.5C 89.5,81.5 89.5,72.5 89.5,63.5 Z"/></g>
<g><path style="opacity:1" fill="#8f8b88" d="M 75.5,92.5 C 60.324,92.1706 45.324,92.5039 30.5,93.5C 29.5266,93.0133 28.5266,92.5133 27.5,92C 43.672,91.1719 59.672,91.3386 75.5,92.5 Z"/></g>
<g><path style="opacity:1" fill="#908c89" d="M 89.5,92.5 C 105.328,91.3386 121.328,91.1719 137.5,92C 136.473,92.5133 135.473,93.0133 134.5,93.5C 119.676,92.5039 104.676,92.1706 89.5,92.5 Z"/></g>
<g><path style="opacity:1" fill="#fefefe" d="M 30.5,93.5 C 45.324,92.5039 60.324,92.1706 75.5,92.5C 75.5,101.833 75.5,111.167 75.5,120.5C 70.1563,120.666 64.8229,120.499 59.5,120C 52.1667,113.333 44.8333,106.667 37.5,100C 39.2603,99.0347 39.5937,97.868 38.5,96.5C 35.8122,95.4866 33.1456,94.4866 30.5,93.5 Z"/></g>
<g><path style="opacity:1" fill="#fefffe" d="M 81.5,92.5 C 83.4722,101.44 84.1389,110.773 83.5,120.5C 81.5278,111.56 80.8611,102.227 81.5,92.5 Z"/></g>
<g><path style="opacity:1" fill="#464341" d="M 81.5,92.5 C 82.209,91.596 83.209,91.2627 84.5,91.5C 84.8271,101.348 84.4938,111.014 83.5,120.5C 84.1389,110.773 83.4722,101.44 81.5,92.5 Z"/></g>
<g><path style="opacity:1" fill="#fdfdfd" d="M 89.5,92.5 C 104.676,92.1706 119.676,92.5039 134.5,93.5C 132.114,94.2981 129.78,95.2981 127.5,96.5C 127.12,98.0207 126.954,99.6874 127,101.5C 120.167,107.667 113.333,113.833 106.5,120C 100.843,120.499 95.1764,120.666 89.5,120.5C 89.5,111.167 89.5,101.833 89.5,92.5 Z"/></g>
<g><path style="opacity:1" fill="#fdfdfd" d="M -0.5,116.5 C 6.46741,157.802 30.4674,182.802 71.5,191.5C 47.5,191.5 23.5,191.5 -0.5,191.5C -0.5,166.5 -0.5,141.5 -0.5,116.5 Z"/></g>
<g><path style="opacity:1" fill="#d63023" d="M 4.5,121.5 C 22.5031,121.333 40.5031,121.5 58.5,122C 64,126.833 69.5,131.667 75,136.5C 75.6667,140.167 75.6667,143.833 75,147.5C 72.5,150 70,152.5 67.5,155C 64.8612,156.946 61.8612,157.946 58.5,158C 55.2916,161.377 51.9582,164.544 48.5,167.5C 50.0453,168.452 51.712,168.785 53.5,168.5C 53.3398,170.199 53.5065,171.866 54,173.5C 57.6472,170.687 61.1472,167.687 64.5,164.5C 65.4714,158.846 68.4714,154.513 73.5,151.5C 73.532,159.58 71.1986,167.08 66.5,174C 68.4899,175.751 70.8232,176.751 73.5,177C 80.8892,177.801 88.2225,177.467 95.5,176C 96.6721,175.581 97.6721,174.915 98.5,174C 93.8139,166.811 91.3139,158.978 91,150.5C 95.7051,153.836 98.7051,158.169 100,163.5C 103.667,166.833 107.333,170.167 111,173.5C 111.494,171.866 111.66,170.199 111.5,168.5C 113.527,168.662 115.527,168.495 117.5,168C 112.845,162.521 107.178,158.855 100.5,157C 96.7012,154.203 93.2012,151.036 90,147.5C 89.3333,143.833 89.3333,140.167 90,136.5C 95.5,131.667 101,126.833 106.5,122C 124.497,121.5 142.497,121.333 160.5,121.5C 153.611,156.223 132.944,177.723 98.5,186C 55.6408,191.659 25.4741,174.825 8,135.5C 6.76765,130.835 5.60099,126.168 4.5,121.5 Z"/></g>
<g><path style="opacity:1" fill="#d33023" d="M 61.5,122.5 C 65.97,121.514 70.6367,121.181 75.5,121.5C 75.6657,125.846 75.499,130.179 75,134.5C 70.9262,129.921 66.4262,125.921 61.5,122.5 Z"/></g>
<g><path style="opacity:1" fill="#d43023" d="M 89.5,121.5 C 94.1785,121.334 98.8452,121.501 103.5,122C 99.3006,126.534 94.8006,130.701 90,134.5C 89.501,130.179 89.3343,125.846 89.5,121.5 Z"/></g>
<g><path style="opacity:1" fill="#fcfcfc" d="M 165.5,118.5 C 165.5,142.833 165.5,167.167 165.5,191.5C 140.833,191.5 116.167,191.5 91.5,191.5C 132.7,183.966 157.367,159.633 165.5,118.5 Z"/></g>
</svg>

<svg xmlns="http://www.w3.org/2000/svg" width="166" height="192" style="shape-rendering:geometricPrecision;text-rendering:geometricPrecision;image-rendering:optimizeQuality;fill-rule:evenodd;clip-rule:evenodd"><path style="opacity:1" fill="#0e0908" d="M-.5-.5h166v119c-8.133 41.133-32.8 65.466-74 73h-20c-41.033-8.698-65.033-33.698-72-75V-.5z"/><path style="opacity:1" fill="#d73023" d="M75.5 35.5v17c-2.56-.302-4.893.032-7 1-7.737.413-14.737 2.913-21 7.5-14.663.5-29.33.667-44 .5v-58h158v58c-14.67.167-29.337 0-44-.5-8.462-5.617-17.795-8.45-28-8.5-.166-5.676 0-11.343.5-17 2.333-1 4-2.667 5-5 2.033-10.137-2.134-15.47-12.5-16-10.366.53-14.533 5.863-12.5 16 1.38 2.215 3.213 3.881 5.5 5z"/><path style="opacity:1" fill="#d23023" d="M83.5 28.5h-9c1.576-7.455 5.91-9.622 13-6.5 1.95 1.734 2.95 3.9 3 6.5h-7z"/><path style="opacity:1" fill="#fefffe" d="M81.5 28.5h2c-.667 82.667-1.333 82.667-2 0z"/><path style="opacity:1" fill="#411912" d="M75.5 35.5c.99 5.81 1.323 11.81 1 18h-8c2.107-.968 4.44-1.302 7-1v-17z"/><path style="opacity:1" fill="#fdfdfd" d="M3.5 62.5c13.67-.167 27.337 0 41 .5A119.2 119.2 0 0 0 31 75.5c-3.974 7.807-9.807 13.807-17.5 18-2.4-5.103-5.067-5.27-8-.5 1.295 2.964 3.628 4.13 7 3.5 4.486.06 8.486-1.273 12-4l7.5 13 4-4L56.5 120c-17.33.5-34.663.667-52 .5a929.328 929.328 0 0 1-1-58z"/><path style="opacity:1" fill="#fdfcfc" d="M120.5 63.5a420.86 420.86 0 0 1 41-1c.167 18.67 0 37.336-.5 56-8.602 1.318-17.436 1.985-26.5 2l-26-.5 20-18c1.917.027 3.584.861 5 2.5a140.089 140.089 0 0 1 7.5-12c4.97 4.111 10.47 5.278 16.5 3.5 2.909-2.84 2.575-5.006-1-6.5-2.241.57-3.908 1.904-5 4-7.028-3.528-12.195-8.861-15.5-16-4.759-5.266-9.925-9.933-15.5-14z"/><path style="opacity:1" fill="#fdfdfd" d="M67.5 63.5h8v27c-16.004.167-32.004 0-48-.5 9.79-14.308 23.123-23.141 40-26.5zM89.5 63.5c20.834.247 36.834 9.08 48 26.5-15.997.5-31.997.667-48 .5v-27z"/><path style="opacity:1" fill="#8f8b88" d="M75.5 92.5a506.865 506.865 0 0 0-45 1l-3-1.5c16.172-.828 32.172-.661 48 .5z"/><path style="opacity:1" fill="#908c89" d="M89.5 92.5c15.828-1.161 31.828-1.328 48-.5l-3 1.5a506.865 506.865 0 0 0-45-1z"/><path style="opacity:1" fill="#fefefe" d="M30.5 93.5a506.865 506.865 0 0 1 45-1v28a128.508 128.508 0 0 1-16-.5l-22-20c1.76-.965 2.094-2.132 1-3.5a2367.886 2367.886 0 0 0-8-3z"/><path style="opacity:1" fill="#fefffe" d="M81.5 92.5c1.972 8.94 2.639 18.273 2 28-1.972-8.94-2.639-18.273-2-28z"/><path style="opacity:1" fill="#464341" d="M81.5 92.5c.709-.904 1.709-1.237 3-1 .327 9.848-.006 19.514-1 29 .639-9.727-.028-19.06-2-28z"/><path style="opacity:1" fill="#fdfdfd" d="M89.5 92.5c15.176-.33 30.176.004 45 1a46.898 46.898 0 0 0-7 3c-.38 1.52-.546 3.187-.5 5L106.5 120a145.05 145.05 0 0 1-17 .5v-28zM-.5 116.5c6.967 41.302 30.967 66.302 72 75h-72v-75z"/><path style="opacity:1" fill="#d63023" d="M4.5 121.5c18.003-.167 36.003 0 54 .5L75 136.5a30.499 30.499 0 0 1 0 11l-7.5 7.5c-2.639 1.946-5.639 2.946-9 3a132.957 132.957 0 0 1-10 9.5c1.545.952 3.212 1.285 5 1-.16 1.699.007 3.366.5 5a134.143 134.143 0 0 0 10.5-9c.971-5.654 3.971-9.987 9-13 .032 8.08-2.301 15.58-7 22.5 1.99 1.751 4.323 2.751 7 3 7.39.801 14.722.467 22-1a7.292 7.292 0 0 0 3-2c-4.686-7.189-7.186-15.022-7.5-23.5 4.705 3.336 7.705 7.669 9 13l11 10a12.93 12.93 0 0 0 .5-5 18.453 18.453 0 0 0 6-.5c-4.655-5.479-10.322-9.145-17-11a70.607 70.607 0 0 1-10.5-9.5 30.499 30.499 0 0 1 0-11l16.5-14.5c17.997-.5 35.997-.667 54-.5-6.889 34.723-27.556 56.223-62 64.5-42.86 5.659-73.026-11.175-90.5-50.5a541.64 541.64 0 0 1-3.5-14z"/><path style="opacity:1" fill="#d33023" d="M61.5 122.5c4.47-.986 9.137-1.319 14-1a84.94 84.94 0 0 1-.5 13c-4.074-4.579-8.574-8.579-13.5-12z"/><path style="opacity:1" fill="#d43023" d="M89.5 121.5a98.433 98.433 0 0 1 14 .5c-4.2 4.534-8.7 8.701-13.5 12.5a84.94 84.94 0 0 1-.5-13z"/><path style="opacity:1" fill="#fcfcfc" d="M165.5 118.5v73h-74c41.2-7.534 65.867-31.867 74-73z"/></svg>
